icons/svg/mail-open.svg

<svg width="24" height="24" viewBox="0 0 24 24" fill="none" xmlns="http://www.w3.org/2000/svg">
<path d="M20.5896 8.94851L12.835 12.5114C12.305 12.755 11.695 12.755 11.165 12.5114L3.41042 8.94851M18.25 20.25H5.75C4.09315 20.25 2.75 18.9069 2.75 17.25V10.0347C2.75 9.17054 3.19626 8.36767 3.93016 7.91146L10.9441 3.55143C11.5907 3.14952 12.4093 3.14952 13.0559 3.55143L20.0698 7.91146C20.8037 8.36767 21.25 9.17054 21.25 10.0347V17.25C21.25 18.9069 19.9069 20.25 18.25 20.25Z" stroke="currentColor" stroke-width="1.5" stroke-linecap="round" stroke-linejoin="round"/>
</svg>

<svg xmlns="http://www.w3.org/2000/svg" width="24" height="24" fill="none" viewBox="0 0 24 24"><path stroke="currentColor" stroke-linecap="round" stroke-linejoin="round" stroke-width="1.5" d="m20.59 8.949-7.755 3.562a2 2 0 0 1-1.67 0L3.41 8.95m14.84 11.3H5.75a3 3 0 0 1-3-3v-7.215A2.5 2.5 0 0 1 3.93 7.91l7.014-4.36a2 2 0 0 1 2.112 0l7.014 4.36a2.5 2.5 0 0 1 1.18 2.124v7.215a3 3 0 0 1-3 3"/></svg>
